icons/filled/brand-tiktok.svg

<svg xmlns="http://www.w3.org/2000/svg" width="24" height="24" viewBox="0 0 24 24" fill="currentColor"><path d="M16.083 2h-4.083a1 1 0 0 0 -1 1v11.5a1.5 1.5 0 1 1 -2.519 -1.1l.12 -.1a1 1 0 0 0 .399 -.8v-4.326a1 1 0 0 0 -1.23 -.974a7.5 7.5 0 0 0 1.73 14.8l.243 -.005a7.5 7.5 0 0 0 7.257 -7.495v-2.7l.311 .153c1.122 .53 2.333 .868 3.59 .993a1 1 0 0 0 1.099 -.996v-4.033a1 1 0 0 0 -.834 -.986a5.005 5.005 0 0 1 -4.097 -4.096a1 1 0 0 0 -.986 -.835z"/></svg>

<svg xmlns="http://www.w3.org/2000/svg" width="24" height="24" fill="currentColor"><path d="M16.083 2H12a1 1 0 0 0-1 1v11.5a1.5 1.5 0 1 1-2.519-1.1l.12-.1A1 1 0 0 0 9 12.5V8.174A1 1 0 0 0 7.77 7.2 7.5 7.5 0 0 0 9.5 22l.243-.005A7.5 7.5 0 0 0 17 14.5v-2.7l.311.153c1.122.53 2.333.868 3.59.993A1 1 0 0 0 22 11.95V7.917a1 1 0 0 0-.834-.986 5.005 5.005 0 0 1-4.097-4.096A1 1 0 0 0 16.083 2"/></svg>
